;FLAVOR:Marlin
;TIME:3725
;Filament used: 1.59011m
;Layer height: 0.12
;MINX:125.5
;MINY:154
;MINZ:0.12
;MAXX:224.5
;MAXY:196
;MAXZ:6
;Generated with Cura_SteamEngine master
M140 S60
M105
M190 S60
M104 S200
M105
M109 S200
M82 ;absolute extrusion mode
M201 X500.00 Y500.00 Z100.00 E5000.00 ;Setup machine max acceleration
M203 X500.00 Y500.00 Z10.00 E50.00 ;Setup machine max feedrate
M204 P500.00 R1000.00 T500.00 ;Setup Print/Retract/Travel acceleration
M205 X8.00 Y8.00 Z0.40 E5.00 ;Setup Jerk
M220 S100 ;Reset Feedrate
M221 S100 ;Reset Flowrate

G28 ;Home
M420 S1 Z2 ;Enable ABL using saved Mesh and Fade Height

G92 E0 ;Reset Extruder
G1 Z2.0 F3000 ;Move Z Axis up
G1 X10.1 Y20 Z0.28 F5000.0 ;Move to start position
G1 X10.1 Y200.0 Z0.28 F1500.0 E15 ;Draw the first line
G1 X10.4 Y200.0 Z0.28 F5000.0 ;Move to side a little
G1 X10.4 Y20 Z0.28 F1500.0 E30 ;Draw the second line
G92 E0 ;Reset Extruder
G1 Z2.0 F3000 ;Move Z Axis up

G92 E0
G92 E0
G1 F1500 E-6.5
;LAYER_COUNT:50
;LAYER:0
M107
G0 F6000 X129.386 Y156.627 Z0.12
;TYPE:SKIRT
G1 F1500 E0
G1 F1200 X130.126 Y156.051 E0.01871
G1 X130.912 Y155.539 E0.03743
G1 X131.739 Y155.097 E0.05615
G1 X132.601 Y154.727 E0.07487
G1 X133.491 Y154.431 E0.09358
G1 X134.403 Y154.213 E0.1123
G1 X135.33 Y154.072 E0.13101
G1 X136.201 Y154.013 E0.14843
G1 X136.522 Y154.004 E0.15484
G1 X136.83 Y154 E0.16099
G1 X212.793 Y154 E1.67691
G1 X213.649 Y154.011 E1.69399
G1 X214.585 Y154.065 E1.7127
G1 X215.513 Y154.197 E1.73141
G1 X216.427 Y154.409 E1.75013
G1 X217.319 Y154.698 E1.76884
G1 X218.184 Y155.061 E1.78757
G1 X219.014 Y155.497 E1.80627
G1 X219.805 Y156.002 E1.825
G1 X220.549 Y156.573 E1.84372
G1 X221.242 Y157.205 E1.86244
G1 X221.879 Y157.893 E1.88115
G1 X222.454 Y158.634 E1.89986
G1 X222.965 Y159.42 E1.91857
G1 X223.407 Y160.248 E1.9373
G1 X223.776 Y161.11 E1.95602
G1 X224.071 Y162 E1.97473
G1 X224.289 Y162.912 E1.99344
G1 X224.429 Y163.84 E2.01217
G1 X224.487 Y164.701 E2.02939
G1 X224.496 Y165.021 E2.03578
G1 X224.5 Y165.33 E2.04194
G1 X224.499 Y184.4 E2.42251
G1 X224.49 Y185.127 E2.43702
G1 X224.439 Y186.064 E2.45574
G1 X224.307 Y186.992 E2.47445
G1 X224.098 Y187.906 E2.49316
G1 X223.811 Y188.799 E2.51188
G1 X223.449 Y189.665 E2.53061
G1 X223.015 Y190.496 E2.54932
G1 X222.511 Y191.287 E2.56804
G1 X221.942 Y192.032 E2.58674
G1 X221.311 Y192.727 E2.60548
G1 X220.624 Y193.365 E2.62419
G1 X219.885 Y193.942 E2.6429
G1 X219.099 Y194.454 E2.66162
G1 X218.273 Y194.897 E2.68032
G1 X217.411 Y195.269 E2.69906
G1 X216.522 Y195.565 E2.71775
G1 X215.61 Y195.785 E2.73648
G1 X214.683 Y195.926 E2.75519
G1 X213.799 Y195.987 E2.77287
G1 X213.478 Y195.996 E2.77928
G1 X213.17 Y196 E2.78543
G1 X137.065 Y195.999 E4.30418
G1 X136.367 Y195.99 E4.31812
G1 X135.431 Y195.938 E4.33682
G1 X134.502 Y195.806 E4.35555
G1 X133.588 Y195.596 E4.37426
G1 X132.695 Y195.309 E4.39298
G1 X131.83 Y194.946 E4.4117
G1 X130.999 Y194.512 E4.43041
G1 X130.208 Y194.008 E4.44913
G1 X129.463 Y193.438 E4.46785
G1 X128.769 Y192.807 E4.48657
G1 X128.132 Y192.12 E4.50526
G1 X127.555 Y191.38 E4.52399
G1 X127.043 Y190.594 E4.54271
G1 X126.6 Y189.767 E4.56143
G1 X126.229 Y188.906 E4.58014
G1 X125.933 Y188.016 E4.59886
G1 X125.714 Y187.104 E4.61758
G1 X125.573 Y186.177 E4.63629
G1 X125.513 Y185.288 E4.65407
G1 X125.504 Y184.955 E4.66072
G1 X125.5 Y184.658 E4.66664
G1 X125.501 Y165.525 E5.04846
G1 X125.51 Y164.86 E5.06174
G1 X125.563 Y163.924 E5.08044
G1 X125.695 Y162.995 E5.09917
G1 X125.906 Y162.081 E5.11789
G1 X126.194 Y161.189 E5.1366
G1 X126.557 Y160.324 E5.15532
G1 X126.992 Y159.493 E5.17403
G1 X127.496 Y158.703 E5.19273
G1 X128.066 Y157.958 E5.21145
G1 X128.698 Y157.264 E5.23019
G1 X129.386 Y156.627 E5.2489
G0 F6000 X129.774 Y156.823
G1 F1200 X130.51 Y156.27 E5.26727
G1 X131.291 Y155.782 E5.28565
G1 X132.111 Y155.364 E5.30401
G1 X132.965 Y155.019 E5.32239
G1 X133.845 Y154.749 E5.34076
G1 X134.745 Y154.557 E5.35913
G1 X135.659 Y154.443 E5.37751
G1 X136.212 Y154.413 E5.38856
G1 X136.533 Y154.404 E5.39497
G1 X136.83 Y154.4 E5.4009
G1 X212.793 Y154.4 E6.91682
G1 X213.643 Y154.411 E6.93379
G1 X214.562 Y154.464 E6.95216
G1 X215.473 Y154.597 E6.97053
G1 X216.369 Y154.808 E6.9889
G1 X217.243 Y155.096 E7.00726
G1 X218.09 Y155.459 E7.02565
G1 X218.901 Y155.894 E7.04402
G1 X219.671 Y156.398 E7.06238
G1 X220.395 Y156.967 E7.08076
G1 X221.067 Y157.597 E7.09914
G1 X221.682 Y158.282 E7.11751
G1 X222.235 Y159.018 E7.13588
G1 X222.722 Y159.799 E7.15425
G1 X223.139 Y160.62 E7.17263
G1 X223.484 Y161.474 E7.19101
G1 X223.753 Y162.354 E7.20937
G1 X223.945 Y163.255 E7.22776
G1 X224.058 Y164.168 E7.24611
G1 X224.087 Y164.712 E7.25699
G1 X224.096 Y165.032 E7.26337
G1 X224.1 Y165.33 E7.26932
G1 X224.099 Y184.395 E7.64978
G1 X224.09 Y185.122 E7.66429
G1 X224.039 Y186.041 E7.68266
G1 X223.908 Y186.953 E7.70105
G1 X223.698 Y187.849 E7.71941
G1 X223.412 Y188.724 E7.73778
G1 X223.051 Y189.571 E7.75616
G1 X222.617 Y190.383 E7.77453
G1 X222.115 Y191.155 E7.79291
G1 X221.547 Y191.88 E7.81129
G1 X220.919 Y192.553 E7.82966
G1 X220.235 Y193.169 E7.84803
G1 X219.5 Y193.723 E7.86639
G1 X218.72 Y194.212 E7.88477
G1 X217.9 Y194.631 E7.90314
G1 X217.047 Y194.977 E7.92151
G1 X216.167 Y195.248 E7.93989
G1 X215.267 Y195.441 E7.95826
G1 X214.353 Y195.556 E7.97664
G1 X213.788 Y195.587 E7.98793
G1 X213.467 Y195.596 E7.99434
G1 X213.17 Y195.6 E8.00027
G1 X137.07 Y195.599 E9.51893
G1 X136.372 Y195.59 E9.53286
G1 X135.453 Y195.538 E9.55123
G1 X134.542 Y195.407 E9.56959
G1 X133.646 Y195.197 E9.58796
G1 X132.771 Y194.91 E9.60633
G1 X131.924 Y194.548 E9.62472
G1 X131.112 Y194.114 E9.64309
G1 X130.341 Y193.612 E9.66145
G1 X129.616 Y193.044 E9.67983
G1 X128.943 Y192.415 E9.69821
G1 X128.328 Y191.731 E9.71657
G1 X127.774 Y190.996 E9.73494
G1 X127.286 Y190.215 E9.75332
G1 X126.867 Y189.395 E9.77169
G1 X126.521 Y188.542 E9.79006
G1 X126.251 Y187.662 E9.80843
G1 X126.058 Y186.761 E9.82682
G1 X125.944 Y185.848 E9.84518
G1 X125.913 Y185.277 E9.85659
G1 X125.904 Y184.944 E9.86324
G1 X125.9 Y184.658 E9.86895
G1 X125.901 Y165.531 E10.25065
G1 X125.91 Y164.866 E10.26392
G1 X125.962 Y163.946 E10.28231
G1 X126.094 Y163.035 E10.30068
G1 X126.305 Y162.139 E10.31905
G1 X126.592 Y161.264 E10.33743
G1 X126.955 Y160.418 E10.3558
G1 X127.389 Y159.606 E10.37417
G1 X127.892 Y158.835 E10.39254
G1 X128.461 Y158.111 E10.41092
G1 X129.089 Y157.439 E10.42927
G1 X129.774 Y156.823 E10.44766
G0 F6000 X130.162 Y157.024
G1 F1200 X130.894 Y156.494 E10.46569
G1 X131.669 Y156.031 E10.48371
G1 X132.482 Y155.638 E10.50173
G1 X133.327 Y155.318 E10.51976
G1 X134.196 Y155.075 E10.53777
G1 X135.084 Y154.909 E10.55579
G1 X136.223 Y154.813 E10.5786
G1 X136.544 Y154.804 E10.58501
G1 X136.83 Y154.8 E10.59072
G1 X212.793 Y154.8 E12.10665
G1 X213.637 Y154.811 E12.12349
G1 X214.539 Y154.864 E12.14152
G1 X215.432 Y154.996 E12.15954
G1 X216.31 Y155.207 E12.17756
G1 X217.166 Y155.495 E12.19558
G1 X217.993 Y155.857 E12.21359
G1 X218.785 Y156.292 E12.23163
G1 X219.536 Y156.794 E12.24965
G1 X220.239 Y157.361 E12.26768
G1 X220.889 Y157.988 E12.2857
G1 X221.481 Y158.67 E12.30372
G1 X222.011 Y159.401 E12.32174
G1 X222.473 Y160.177 E12.33976
G1 X222.866 Y160.99 E12.35778
G1 X223.184 Y161.835 E12.3758
G1 X223.427 Y162.705 E12.39383
G1 X223.592 Y163.593 E12.41185
G1 X223.687 Y164.723 E12.43448
G1 X223.696 Y165.043 E12.44087
G1 X223.7 Y165.33 E12.4466
G1 X223.699 Y184.39 E12.82696
G1 X223.69 Y185.117 E12.84147
G1 X223.639 Y186.019 E12.8595
G1 X223.508 Y186.913 E12.87753
G1 X223.299 Y187.791 E12.89554
G1 X223.013 Y188.648 E12.91357
G1 X222.652 Y189.476 E12.9316
G1 X222.22 Y190.268 E12.9496
G1 X221.719 Y191.02 E12.96763
G1 X221.153 Y191.724 E12.98566
G1 X220.528 Y192.375 E13.00367
G1 X219.847 Y192.969 E13.0217
G1 X219.116 Y193.5 E13.03973
G1 X218.342 Y193.964 E13.05774
G1 X217.529 Y194.358 E13.07577
G1 X216.685 Y194.678 E13.09378
G1 X215.815 Y194.923 E13.11182
G1 X214.928 Y195.089 E13.12983
G1 X213.777 Y195.187 E13.15288
G1 X213.456 Y195.196 E13.15929
G1 X213.17 Y195.2 E13.165
G1 X137.075 Y195.199 E14.68356
G1 X136.377 Y195.19 E14.69749
G1 X135.476 Y195.139 E14.7155
G1 X134.582 Y195.007 E14.73353
G1 X133.704 Y194.798 E14.75154
G1 X132.847 Y194.511 E14.76958
G1 X132.02 Y194.15 E14.78758
G1 X131.227 Y193.717 E14.80562
G1 X130.476 Y193.216 E14.82363
G1 X129.772 Y192.65 E14.84166
G1 X129.121 Y192.024 E14.85968
G1 X128.528 Y191.343 E14.8777
G1 X127.998 Y190.612 E14.89572
G1 X127.534 Y189.837 E14.91375
G1 X127.14 Y189.024 E14.93178
G1 X126.82 Y188.18 E14.94979
G1 X126.576 Y187.31 E14.96782
G1 X126.41 Y186.422 E14.98585
G1 X126.313 Y185.267 E15.00898
G1 X126.304 Y184.934 E15.01563
G1 X126.3 Y184.658 E15.02113
G1 X126.301 Y165.536 E15.40273
G1 X126.31 Y164.871 E15.41601
G1 X126.362 Y163.969 E15.43404
G1 X126.494 Y163.076 E15.45205
G1 X126.704 Y162.198 E15.47007
G1 X126.991 Y161.341 E15.4881
G1 X127.353 Y160.514 E15.50612
G1 X127.786 Y159.722 E15.52413
G1 X128.288 Y158.971 E15.54216
G1 X128.855 Y158.267 E15.5602
G1 X129.481 Y157.617 E15.57821
G1 X130.162 Y157.024 E15.59623
G1 F1500 E9.09623
;MESH:model.stl
G0 F6000 X152.833 Y181.095
G0 X152.833 Y182.93
G0 X154.76 Y182.76
;TYPE:WALL-INNER
G1 F1500 E15.59623
G1 F1200 X154.76 Y167.24 E15.90595
G1 X138.24 Y167.24 E16.23562
G1 X138.24 Y182.76 E16.54534
G1 X154.76 Y182.76 E16.87501
G0 F6000 X154.36 Y182.36
G1 F1200 X154.36 Y167.64 E17.16877
G1 X138.64 Y167.64 E17.48248
G1 X138.64 Y182.36 E17.77623
G1 X154.36 Y182.36 E18.08994
G0 F6000 X153.96 Y181.96
;TYPE:WALL-OUTER
G1 F1200 X153.96 Y168.04 E18.36773
G1 X139.04 Y168.04 E18.66547
G1 X139.04 Y181.96 E18.94326
G1 X153.96 Y181.96 E19.24101
G1 F1500 E12.74101
G0 F6000 X154.26 Y181.96
G0 X152.833 Y182.93
G0 X152.833 Y181.095
G0 X158.825 Y181.059
G0 X172.107 Y181.107
G0 X177.825 Y180.946
G0 X191.107 Y181.107
G0 X196.905 Y180.833
G0 X195.07 Y180.833
G0 X195.24 Y182.76
;TYPE:WALL-INNER
G1 F1500 E19.24101
G1 F1200 X211.76 Y182.76 E19.57068
G1 X211.76 Y167.24 E19.8804
G1 X195.24 Y167.24 E20.21007
G1 X195.24 Y182.76 E20.51979
G0 F6000 X195.64 Y182.36
G1 F1200 X211.36 Y182.36 E20.8335
G1 X211.36 Y167.64 E21.12725
G1 X195.64 Y167.64 E21.44096
G1 X195.64 Y182.36 E21.73472
G0 F6000 X196.04 Y181.96
;TYPE:WALL-OUTER
G1 F1200 X210.96 Y181.96 E22.03246
G1 X210.96 Y168.04 E22.31025
G1 X196.04 Y168.04 E22.608
G1 X196.04 Y181.96 E22.88578
G1 F1500 E16.38578
G0 F6000 X195.74 Y181.96
G0 X195.05 Y182.76
G0 X192.95 Y182.76
G0 X176.24 Y182.76
;TYPE:WALL-INNER
G1 F1500 E22.88578
G1 F1200 X192.76 Y182.76 E23.21546
G1 X192.76 Y167.24 E23.52518
G1 X176.24 Y167.24 E23.85485
G1 X176.24 Y182.76 E24.16457
G0 F6000 X176.64 Y182.36
G1 F1200 X192.36 Y182.36 E24.47828
G1 X192.36 Y167.64 E24.77203
G1 X176.64 Y167.64 E25.08574
G1 X176.64 Y182.36 E25.3795
G0 F6000 X177.04 Y181.96
;TYPE:WALL-OUTER
G1 F1200 X191.96 Y181.96 E25.67724
G1 X191.96 Y168.04 E25.95503
G1 X177.04 Y168.04 E26.25277
G1 X177.04 Y181.96 E26.53056
G1 F1500 E20.03056
G0 F6000 X176.74 Y181.96
G0 X176.05 Y182.76
G0 X173.95 Y182.76
G0 X173.76 Y182.76
;TYPE:WALL-INNER
G1 F1500 E26.53056
G1 F1200 X173.76 Y167.24 E26.84028
G1 X157.24 Y167.24 E27.16996
G1 X157.24 Y182.76 E27.47967
G1 X173.76 Y182.76 E27.80935
G0 F6000 X173.36 Y182.36
G1 F1200 X173.36 Y167.64 E28.1031
G1 X157.64 Y167.64 E28.41681
G1 X157.64 Y182.36 E28.71057
G1 X173.36 Y182.36 E29.02427
G0 F6000 X172.96 Y181.96
;TYPE:WALL-OUTER
G1 F1200 X172.96 Y168.04 E29.30206
G1 X158.04 Y168.04 E29.59981
G1 X158.04 Y181.96 E29.8776
G1 X172.96 Y181.96 E30.17534
G1 F1500 E23.67534
G0 F6000 X173.26 Y181.96
G0 X173.956 Y182.956
G0 X173.956 Y183.79
G0 X212.5 Y184
;TYPE:WALL-INNER
G1 F1500 E30.17534
G1 F1200 X137.5 Y184 E31.67205
G1 X137.5 Y166 E32.03126
G1 X212.5 Y166 E33.52796
G1 X212.5 Y184 E33.88717
G0 F6000 X212.9 Y184.4
G1 F1200 X137.1 Y184.4 E35.39984
G1 X137.1 Y165.6 E35.77502
G1 X212.9 Y165.6 E37.28769
G1 X212.9 Y184.4 E37.66286
G0 F6000 X213.3 Y184.8
;TYPE:WALL-OUTER
G1 F1200 X136.7 Y184.8 E39.1915
G1 X136.7 Y165.2 E39.58264
G1 X213.3 Y165.2 E41.11127
G1 X213.3 Y184.8 E41.50241
G0 F6000 X213.03 Y184.53
G0 X212.39 Y183.61
G0 X212.11 Y183.61
;TYPE:SKIN
G1 F1200 X137.89 Y183.61 E42.98355
G1 X137.89 Y183.15 E42.99273
G1 X155.15 Y183.15 E43.33718
G1 X155.15 Y166.85 E43.66246
G1 X137.89 Y166.85 E44.0069
G1 X137.89 Y166.39 E44.01608
G1 X212.11 Y166.39 E45.49722
G1 X212.11 Y166.85 E45.5064
G1 X194.85 Y166.85 E45.85084
G1 X194.85 Y183.15 E46.17613
G1 X212.11 Y183.15 E46.52057
G1 X212.11 Y183.61 E46.52975
G1 F1500 E40.02975
G0 F6000 X212.39 Y183.61
G0 X192.87 Y183.79
G0 X192.87 Y182.95
G0 X193.15 Y183.15
G1 F1500 E46.52975
G1 F1200 X193.15 Y166.85 E46.85503
G1 X175.85 Y166.85 E47.20027
G1 X175.85 Y183.15 E47.52556
G1 X193.15 Y183.15 E47.8708
G1 F1500 E41.3708
G0 F6000 X192.87 Y182.9
G0 X176.05 Y182.9
G0 X173.95 Y182.9
G0 X174.15 Y183.15
G1 F1500 E47.8708
G1 F1200 X174.15 Y166.85 E48.19608
G1 X156.85 Y166.85 E48.54132
G1 X156.85 Y183.15 E48.86661
G1 X174.15 Y183.15 E49.21185
G1 F1500 E42.71185
G0 F6000 X173.87 Y182.9
G0 X157.05 Y182.87
G0 X154.95 Y182.87
G0 X138.13 Y182.87
G0 X138.054 Y183.308
G1 F1500 E49.21185
G1 F1200 X138.194 Y183.448 E49.2158
G0 F6000 X138.619 Y183.308
G1 F1200 X138.759 Y183.448 E49.21975
G0 F6000 X139.185 Y183.308
G1 F1200 X139.325 Y183.448 E49.2237
G0 F6000 X139.751 Y183.308
G1 F1200 X139.891 Y183.448 E49.22765
G0 F6000 X140.316 Y183.308
G1 F1200 X140.456 Y183.448 E49.2316
G0 F6000 X140.882 Y183.308
G1 F1200 X141.022 Y183.448 E49.23555
G0 F6000 X141.448 Y183.308
G1 F1200 X141.588 Y183.448 E49.2395
G0 F6000 X142.013 Y183.308
G1 F1200 X142.153 Y183.448 E49.24346
G0 F6000 X142.579 Y183.308
G1 F1200 X142.719 Y183.448 E49.24741
G0 F6000 X143.145 Y183.308
G1 F1200 X143.285 Y183.448 E49.25136
G0 F6000 X143.71 Y183.308
G1 F1200 X143.85 Y183.448 E49.25531
G0 F6000 X144.276 Y183.308
G1 F1200 X144.416 Y183.448 E49.25926
G0 F6000 X144.842 Y183.308
G1 F1200 X144.982 Y183.448 E49.26321
G0 F6000 X145.408 Y183.308
G1 F1200 X145.548 Y183.448 E49.26716
G0 F6000 X145.973 Y183.308
G1 F1200 X146.113 Y183.448 E49.27111
G0 F6000 X146.539 Y183.308
G1 F1200 X146.679 Y183.448 E49.27506
G0 F6000 X147.105 Y183.308
G1 F1200 X147.245 Y183.448 E49.27902
G0 F6000 X147.67 Y183.308
G1 F1200 X147.81 Y183.448 E49.28297
G0 F6000 X148.236 Y183.308
G1 F1200 X148.376 Y183.448 E49.28692
G0 F6000 X148.802 Y183.308
G1 F1200 X148.942 Y183.448 E49.29087
G0 F6000 X149.367 Y183.308
G1 F1200 X149.507 Y183.448 E49.29482
G0 F6000 X149.933 Y183.308
G1 F1200 X150.073 Y183.448 E49.29877
G0 F6000 X150.499 Y183.308
G1 F1200 X150.639 Y183.448 E49.30272
G0 F6000 X151.064 Y183.308
G1 F1200 X151.204 Y183.448 E49.30667
G0 F6000 X151.63 Y183.308
G1 F1200 X151.77 Y183.448 E49.31062
G0 F6000 X152.196 Y183.308
G1 F1200 X152.336 Y183.448 E49.31458
G0 F6000 X152.761 Y183.308
G1 F1200 X152.901 Y183.448 E49.31853
G0 F6000 X153.327 Y183.308
G1 F1200 X153.467 Y183.448 E49.32248
G0 F6000 X153.893 Y183.308
G1 F1200 X154.033 Y183.448 E49.32643
G0 F6000 X154.458 Y183.308
G1 F1200 X154.598 Y183.448 E49.33038
G0 F6000 X155.024 Y183.308
G1 F1200 X155.164 Y183.448 E49.33433
G0 F6000 X155.31 Y183.028
G1 F1200 X155.73 Y183.448 E49.34618
G0 F6000 X156.296 Y183.448
G1 F1200 X155.31 Y182.463 E49.374
G0 F6000 X155.31 Y181.897
G1 F1200 X156.689 Y183.277 E49.41293
G0 F6000 X156.722 Y183.309
G1 F1200 X156.861 Y183.448 E49.41685
G0 F6000 X157.288 Y183.309
G1 F1200 X157.427 Y183.448 E49.42078
G0 F6000 X157.853 Y183.309
G1 F1200 X157.993 Y183.448 E49.42471
G0 F6000 X158.419 Y183.309
G1 F1200 X158.558 Y183.448 E49.42863
G0 F6000 X158.985 Y183.309
G1 F1200 X159.124 Y183.448 E49.43256
G0 F6000 X159.55 Y183.309
G1 F1200 X159.69 Y183.448 E49.43649
G0 F6000 X160.116 Y183.309
G1 F1200 X160.255 Y183.448 E49.44042
G0 F6000 X160.682 Y183.309
G1 F1200 X160.821 Y183.448 E49.44434
G0 F6000 X161.247 Y183.309
G1 F1200 X161.387 Y183.448 E49.44828
G0 F6000 X161.813 Y183.309
G1 F1200 X161.952 Y183.448 E49.4522
G0 F6000 X162.379 Y183.309
G1 F1200 X162.518 Y183.448 E49.45612
G0 F6000 X162.944 Y183.309
G1 F1200 X163.084 Y183.448 E49.46006
G0 F6000 X163.51 Y183.309
G1 F1200 X163.649 Y183.448 E49.46398
G0 F6000 X164.076 Y183.309
G1 F1200 X164.215 Y183.448 E49.46791
G0 F6000 X164.642 Y183.309
G1 F1200 X164.781 Y183.448 E49.47183
G0 F6000 X165.207 Y183.309
