;FLAVOR:Marlin
;TIME:1062
;Filament used: 0.48151m
;Layer height: 0.12
;MINX:154
;MINY:154
;MINZ:0.12
;MAXX:196
;MAXY:196
;MAXZ:6
;Generated with Cura_SteamEngine master
M140 S60
M105
M190 S60
M104 S200
M105
M109 S200
M82 ;absolute extrusion mode
M201 X500.00 Y500.00 Z100.00 E5000.00 ;Setup machine max acceleration
M203 X500.00 Y500.00 Z10.00 E50.00 ;Setup machine max feedrate
M204 P500.00 R1000.00 T500.00 ;Setup Print/Retract/Travel acceleration
M205 X8.00 Y8.00 Z0.40 E5.00 ;Setup Jerk
M220 S100 ;Reset Feedrate
M221 S100 ;Reset Flowrate

G28 ;Home
M420 S1 Z2 ;Enable ABL using saved Mesh and Fade Height

G92 E0 ;Reset Extruder
G1 Z2.0 F3000 ;Move Z Axis up
G1 X10.1 Y20 Z0.28 F5000.0 ;Move to start position
G1 X10.1 Y200.0 Z0.28 F1500.0 E15 ;Draw the first line
G1 X10.4 Y200.0 Z0.28 F5000.0 ;Move to side a little
G1 X10.4 Y20 Z0.28 F1500.0 E30 ;Draw the second line
G92 E0 ;Reset Extruder
G1 Z2.0 F3000 ;Move Z Axis up

G92 E0
G92 E0
G1 F1500 E-6.5
;LAYER_COUNT:50
;LAYER:0
M107
G0 F6000 X157.198 Y157.264 Z0.12
;TYPE:SKIRT
G1 F1500 E0
G1 F1200 X157.886 Y156.627 E0.01871
G1 X158.626 Y156.051 E0.03742
G1 X159.412 Y155.539 E0.05614
G1 X160.239 Y155.097 E0.07486
G1 X161.101 Y154.727 E0.09358
G1 X161.991 Y154.431 E0.11229
G1 X162.903 Y154.213 E0.13101
G1 X163.83 Y154.072 E0.14972
G1 X164.701 Y154.013 E0.16714
G1 X165.022 Y154.004 E0.17355
G1 X165.33 Y154 E0.1797
G1 X184.293 Y154 E0.55812
G1 X185.149 Y154.011 E0.57521
G1 X186.085 Y154.065 E0.59392
G1 X187.013 Y154.197 E0.61262
G1 X187.927 Y154.409 E0.63135
G1 X188.819 Y154.698 E0.65006
G1 X189.684 Y155.061 E0.66878
G1 X190.514 Y155.497 E0.68749
G1 X191.305 Y156.002 E0.70622
G1 X192.049 Y156.573 E0.72493
G1 X192.742 Y157.205 E0.74365
G1 X193.379 Y157.893 E0.76236
G1 X193.954 Y158.634 E0.78108
G1 X194.465 Y159.42 E0.79979
G1 X194.907 Y160.248 E0.81852
G1 X195.276 Y161.11 E0.83723
G1 X195.571 Y162 E0.85594
G1 X195.789 Y162.912 E0.87465
G1 X195.929 Y163.84 E0.89338
G1 X195.987 Y164.701 E0.9106
G1 X195.996 Y165.021 E0.91699
G1 X196 Y165.33 E0.92316
G1 X195.999 Y184.4 E1.30372
G1 X195.99 Y185.127 E1.31823
G1 X195.939 Y186.064 E1.33696
G1 X195.807 Y186.992 E1.35566
G1 X195.598 Y187.906 E1.37437
G1 X195.311 Y188.799 E1.39309
G1 X194.949 Y189.665 E1.41182
G1 X194.515 Y190.496 E1.43053
G1 X194.011 Y191.287 E1.44925
G1 X193.442 Y192.032 E1.46796
G1 X192.811 Y192.727 E1.48669
G1 X192.124 Y193.365 E1.5054
G1 X191.385 Y193.942 E1.52411
G1 X190.599 Y194.454 E1.54283
G1 X189.773 Y194.897 E1.56154
G1 X188.911 Y195.269 E1.58027
G1 X188.022 Y195.565 E1.59897
G1 X187.11 Y195.785 E1.61769
G1 X186.183 Y195.926 E1.6364
G1 X185.299 Y195.987 E1.65409
G1 X184.978 Y195.996 E1.66049
G1 X184.67 Y196 E1.66664
G1 X165.565 Y195.999 E2.0479
G1 X164.867 Y195.99 E2.06183
G1 X163.931 Y195.938 E2.08054
G1 X163.002 Y195.806 E2.09927
G1 X162.088 Y195.596 E2.11798
G1 X161.195 Y195.309 E2.1367
G1 X160.33 Y194.946 E2.15542
G1 X159.499 Y194.512 E2.17413
G1 X158.708 Y194.008 E2.19285
G1 X157.963 Y193.438 E2.21157
G1 X157.269 Y192.807 E2.23028
G1 X156.632 Y192.12 E2.24898
G1 X156.055 Y191.38 E2.26771
G1 X155.543 Y190.594 E2.28643
G1 X155.1 Y189.767 E2.30515
G1 X154.729 Y188.906 E2.32386
G1 X154.433 Y188.016 E2.34258
G1 X154.214 Y187.104 E2.36129
G1 X154.073 Y186.177 E2.38001
G1 X154.013 Y185.288 E2.39779
G1 X154.004 Y184.955 E2.40443
G1 X154 Y184.658 E2.41036
G1 X154.001 Y165.525 E2.79218
G1 X154.01 Y164.86 E2.80545
G1 X154.063 Y163.924 E2.82416
G1 X154.195 Y162.995 E2.84289
G1 X154.406 Y162.081 E2.86161
G1 X154.694 Y161.189 E2.88031
G1 X155.057 Y160.324 E2.89903
G1 X155.492 Y159.493 E2.91775
G1 X155.996 Y158.703 E2.93645
G1 X156.566 Y157.958 E2.95517
G1 X157.198 Y157.264 E2.9739
G0 F6000 X157.589 Y157.439
G1 F1200 X158.274 Y156.823 E2.99229
G1 X159.01 Y156.27 E3.01066
G1 X159.791 Y155.782 E3.02904
G1 X160.611 Y155.364 E3.0474
G1 X161.465 Y155.019 E3.06579
G1 X162.345 Y154.749 E3.08415
G1 X163.245 Y154.557 E3.10252
G1 X164.159 Y154.443 E3.1209
G1 X164.712 Y154.413 E3.13195
G1 X165.033 Y154.404 E3.13836
G1 X165.33 Y154.4 E3.14429
G1 X184.293 Y154.4 E3.52272
G1 X185.143 Y154.411 E3.53968
G1 X186.062 Y154.464 E3.55805
G1 X186.973 Y154.597 E3.57642
G1 X187.869 Y154.808 E3.59479
G1 X188.743 Y155.096 E3.61316
G1 X189.59 Y155.459 E3.63155
G1 X190.401 Y155.894 E3.64991
G1 X191.171 Y156.398 E3.66828
G1 X191.895 Y156.967 E3.68665
G1 X192.567 Y157.597 E3.70504
G1 X193.182 Y158.282 E3.72341
G1 X193.735 Y159.018 E3.74178
G1 X194.222 Y159.799 E3.76015
G1 X194.639 Y160.62 E3.77852
G1 X194.984 Y161.474 E3.7969
G1 X195.253 Y162.354 E3.81527
G1 X195.445 Y163.255 E3.83365
G1 X195.558 Y164.168 E3.85201
G1 X195.587 Y164.712 E3.86288
G1 X195.596 Y165.032 E3.86927
G1 X195.6 Y165.33 E3.87522
G1 X195.599 Y184.395 E4.25568
G1 X195.59 Y185.122 E4.27019
G1 X195.539 Y186.041 E4.28856
G1 X195.408 Y186.953 E4.30694
G1 X195.198 Y187.849 E4.32531
G1 X194.912 Y188.724 E4.34368
G1 X194.551 Y189.571 E4.36205
G1 X194.117 Y190.383 E4.38043
G1 X193.615 Y191.155 E4.3988
G1 X193.047 Y191.88 E4.41718
G1 X192.419 Y192.553 E4.43555
G1 X191.735 Y193.169 E4.45392
G1 X191 Y193.723 E4.47229
G1 X190.22 Y194.212 E4.49066
G1 X189.4 Y194.631 E4.50904
G1 X188.547 Y194.977 E4.52741
G1 X187.667 Y195.248 E4.54578
G1 X186.767 Y195.441 E4.56415
G1 X185.853 Y195.556 E4.58254
G1 X185.288 Y195.587 E4.59383
G1 X184.967 Y195.596 E4.60024
G1 X184.67 Y195.6 E4.60616
G1 X165.57 Y195.599 E4.98732
G1 X164.872 Y195.59 E5.00125
G1 X163.953 Y195.538 E5.01962
G1 X163.042 Y195.407 E5.03799
G1 X162.146 Y195.197 E5.05636
G1 X161.271 Y194.91 E5.07473
G1 X160.424 Y194.548 E5.09311
G1 X159.612 Y194.114 E5.11149
G1 X158.841 Y193.612 E5.12985
G1 X158.116 Y193.044 E5.14823
G1 X157.443 Y192.415 E5.16661
G1 X156.828 Y191.731 E5.18497
G1 X156.274 Y190.996 E5.20333
G1 X155.786 Y190.215 E5.22171
G1 X155.367 Y189.395 E5.24009
G1 X155.021 Y188.542 E5.25846
G1 X154.751 Y187.662 E5.27683
G1 X154.558 Y186.761 E5.29522
G1 X154.444 Y185.848 E5.31358
G1 X154.413 Y185.277 E5.32499
G1 X154.404 Y184.944 E5.33164
G1 X154.4 Y184.658 E5.33735
G1 X154.401 Y165.531 E5.71905
G1 X154.41 Y164.866 E5.73232
G1 X154.462 Y163.946 E5.75071
G1 X154.594 Y163.035 E5.76908
G1 X154.805 Y162.139 E5.78745
G1 X155.092 Y161.264 E5.80582
G1 X155.455 Y160.418 E5.82419
G1 X155.889 Y159.606 E5.84257
G1 X156.392 Y158.835 E5.86094
G1 X156.961 Y158.111 E5.87932
G1 X157.589 Y157.439 E5.89767
G0 F6000 X157.981 Y157.617
G1 F1200 X158.662 Y157.024 E5.91569
G1 X159.394 Y156.494 E5.93373
G1 X160.169 Y156.031 E5.95174
G1 X160.982 Y155.638 E5.96976
G1 X161.827 Y155.318 E5.98779
G1 X162.696 Y155.075 E6.0058
G1 X163.584 Y154.909 E6.02383
G1 X164.723 Y154.813 E6.04664
G1 X165.044 Y154.804 E6.05305
G1 X165.33 Y154.8 E6.05876
G1 X184.293 Y154.8 E6.43718
G1 X185.137 Y154.811 E6.45403
G1 X186.039 Y154.864 E6.47206
G1 X186.932 Y154.996 E6.49007
G1 X187.81 Y155.207 E6.50809
G1 X188.666 Y155.495 E6.52612
G1 X189.493 Y155.857 E6.54413
G1 X190.285 Y156.292 E6.56216
G1 X191.036 Y156.794 E6.58019
G1 X191.739 Y157.361 E6.59821
G1 X192.389 Y157.988 E6.61624
G1 X192.981 Y158.67 E6.63426
G1 X193.511 Y159.401 E6.65228
G1 X193.973 Y160.177 E6.6703
G1 X194.366 Y160.99 E6.68832
G1 X194.684 Y161.835 E6.70634
G1 X194.927 Y162.705 E6.72437
G1 X195.092 Y163.593 E6.74239
G1 X195.187 Y164.723 E6.76502
G1 X195.196 Y165.043 E6.77141
G1 X195.2 Y165.33 E6.77714
G1 X195.199 Y184.39 E7.1575
G1 X195.19 Y185.117 E7.17201
G1 X195.139 Y186.019 E7.19004
G1 X195.008 Y186.913 E7.20807
G1 X194.799 Y187.791 E7.22608
G1 X194.513 Y188.648 E7.24411
G1 X194.152 Y189.476 E7.26213
G1 X193.72 Y190.268 E7.28014
G1 X193.219 Y191.02 E7.29817
G1 X192.653 Y191.724 E7.3162
G1 X192.028 Y192.375 E7.33421
G1 X191.347 Y192.969 E7.35224
G1 X190.616 Y193.5 E7.37027
G1 X189.842 Y193.964 E7.38828
G1 X189.029 Y194.358 E7.40631
G1 X188.185 Y194.678 E7.42432
G1 X187.315 Y194.923 E7.44236
G1 X186.428 Y195.089 E7.46037
G1 X185.277 Y195.187 E7.48342
G1 X184.956 Y195.196 E7.48983
G1 X184.67 Y195.2 E7.49554
G1 X165.575 Y195.199 E7.8766
G1 X164.877 Y195.19 E7.89053
G1 X163.976 Y195.139 E7.90854
G1 X163.082 Y195.007 E7.92657
G1 X162.204 Y194.798 E7.94458
G1 X161.347 Y194.511 E7.96262
G1 X160.52 Y194.15 E7.98063
G1 X159.727 Y193.717 E7.99866
G1 X158.976 Y193.216 E8.01667
G1 X158.272 Y192.65 E8.0347
G1 X157.621 Y192.024 E8.05272
G1 X157.028 Y191.343 E8.07074
G1 X156.498 Y190.612 E8.08876
G1 X156.034 Y189.837 E8.10679
G1 X155.64 Y189.024 E8.12482
G1 X155.32 Y188.18 E8.14283
G1 X155.076 Y187.31 E8.16086
G1 X154.91 Y186.422 E8.17889
G1 X154.813 Y185.267 E8.20202
G1 X154.804 Y184.934 E8.20867
G1 X154.8 Y184.658 E8.21418
G1 X154.801 Y165.536 E8.59578
G1 X154.81 Y164.871 E8.60905
G1 X154.862 Y163.969 E8.62708
G1 X154.994 Y163.076 E8.64509
G1 X155.204 Y162.198 E8.66311
G1 X155.491 Y161.341 E8.68114
G1 X155.853 Y160.514 E8.69916
G1 X156.286 Y159.722 E8.71717
G1 X156.788 Y158.971 E8.7352
G1 X157.355 Y158.267 E8.75324
G1 X157.981 Y157.617 E8.77125
G1 F1500 E2.27125
;MESH:model.stl
G0 F6000 X168.41 Y178.691
G0 X166.575 Y178.691
G0 X166.745 Y182.755
;TYPE:WALL-INNER
G1 F1500 E8.77125
G1 F1200 X183.255 Y182.755 E9.10072
G1 X183.255 Y167.245 E9.41024
G1 X166.745 Y167.245 E9.73972
G1 X166.745 Y182.755 E10.04923
G0 F6000 X167.145 Y182.355
G1 F1200 X182.855 Y182.355 E10.36274
G1 X182.855 Y167.645 E10.6563
G1 X167.145 Y167.645 E10.96981
G1 X167.145 Y182.355 E11.26336
G0 F6000 X167.545 Y181.955
;TYPE:WALL-OUTER
G1 F1200 X182.455 Y181.955 E11.56091
G1 X182.455 Y168.045 E11.8385
G1 X167.545 Y168.045 E12.13604
G1 X167.545 Y181.955 E12.41363
G1 F1500 E5.91363
G0 F6000 X167.245 Y181.955
G0 X183.451 Y182.951
G0 X183.79 Y182.951
G0 X184 Y184
;TYPE:WALL-INNER
G1 F1500 E12.41363
G1 F1200 X166 Y184 E12.77284
G1 X166 Y166 E13.13205
G1 X184 Y166 E13.49126
G1 X184 Y184 E13.85047
G0 F6000 X184.4 Y184.4
G1 F1200 X165.6 Y184.4 E14.22564
G1 X165.6 Y165.6 E14.60082
G1 X184.4 Y165.6 E14.97599
G1 X184.4 Y184.4 E15.35117
G0 F6000 X184.8 Y184.8
;TYPE:WALL-OUTER
G1 F1200 X165.2 Y184.8 E15.74231
G1 X165.2 Y165.2 E16.13344
G1 X184.8 Y165.2 E16.52458
G1 X184.8 Y184.8 E16.91572
G0 F6000 X184.53 Y184.53
G0 X183.89 Y183.61
G0 X183.61 Y183.61
;TYPE:SKIN
G1 F1200 X166.39 Y183.61 E17.25937
G1 X166.39 Y183.145 E17.26865
G1 X183.61 Y183.145 E17.61229
G1 X183.61 Y183.61 E17.62157
G0 F6000 X183.89 Y183.61
G0 X183.89 Y166.855
G0 X183.61 Y166.855
G1 F1200 X166.39 Y166.855 E17.96521
G1 X166.39 Y166.39 E17.97449
G1 X183.61 Y166.39 E18.31814
G1 X183.61 Y166.855 E18.32742
G0 F6000 X183.098 Y166.694
G1 F1200 X182.954 Y166.549 E18.33149
G0 F6000 X182.533 Y166.694
G1 F1200 X182.389 Y166.549 E18.33557
G0 F6000 X181.967 Y166.694
G1 F1200 X181.823 Y166.549 E18.33965
G0 F6000 X181.401 Y166.694
G1 F1200 X181.257 Y166.549 E18.34373
G0 F6000 X180.836 Y166.694
G1 F1200 X180.691 Y166.549 E18.34782
G0 F6000 X180.27 Y166.694
G1 F1200 X180.126 Y166.549 E18.3519
G0 F6000 X179.704 Y166.694
G1 F1200 X179.56 Y166.549 E18.35598
G0 F6000 X179.139 Y166.694
G1 F1200 X178.994 Y166.549 E18.36007
G0 F6000 X178.573 Y166.694
G1 F1200 X178.429 Y166.549 E18.36415
G0 F6000 X178.007 Y166.694
G1 F1200 X177.863 Y166.549 E18.36823
G0 F6000 X177.442 Y166.694
G1 F1200 X177.297 Y166.549 E18.37232
G0 F6000 X176.876 Y166.694
G1 F1200 X176.732 Y166.549 E18.3764
G0 F6000 X176.31 Y166.694
G1 F1200 X176.166 Y166.549 E18.38047
G0 F6000 X175.745 Y166.694
G1 F1200 X175.6 Y166.549 E18.38457
G0 F6000 X175.179 Y166.694
G1 F1200 X175.035 Y166.549 E18.38864
G0 F6000 X174.613 Y166.694
G1 F1200 X174.469 Y166.549 E18.39272
G0 F6000 X174.047 Y166.694
G1 F1200 X173.903 Y166.549 E18.3968
G0 F6000 X173.482 Y166.694
G1 F1200 X173.338 Y166.549 E18.40088
G0 F6000 X172.916 Y166.694
G1 F1200 X172.772 Y166.549 E18.40496
G0 F6000 X172.35 Y166.694
G1 F1200 X172.206 Y166.549 E18.40904
G0 F6000 X171.785 Y166.694
G1 F1200 X171.64 Y166.549 E18.41313
G0 F6000 X171.219 Y166.694
G1 F1200 X171.075 Y166.549 E18.41721
G0 F6000 X170.653 Y166.694
G1 F1200 X170.509 Y166.549 E18.42128
G0 F6000 X170.088 Y166.694
G1 F1200 X169.943 Y166.549 E18.42538
G0 F6000 X169.522 Y166.694
G1 F1200 X169.378 Y166.549 E18.42945
G0 F6000 X168.956 Y166.694
G1 F1200 X168.812 Y166.549 E18.43353
G0 F6000 X168.391 Y166.694
G1 F1200 X168.246 Y166.549 E18.43762
G0 F6000 X167.825 Y166.694
G1 F1200 X167.681 Y166.549 E18.4417
G0 F6000 X167.259 Y166.694
G1 F1200 X167.115 Y166.549 E18.44578
G0 F6000 X166.694 Y166.694
G1 F1200 X166.549 Y166.549 E18.44987
G1 F1500 E11.94987
G0 F6000 X166.549 Y166.11
G0 X166.899 Y166.21
G0 X166.899 Y167.055
G0 X166.899 Y182.865
G0 X166.899 Y183.304
G1 F1500 E18.44987
G1 F1200 X167.044 Y183.449 E18.45397
G0 F6000 X167.465 Y183.304
G1 F1200 X167.61 Y183.449 E18.45806
G0 F6000 X168.031 Y183.304
G1 F1200 X168.176 Y183.449 E18.46215
G0 F6000 X168.596 Y183.304
G1 F1200 X168.741 Y183.449 E18.46624
G0 F6000 X169.162 Y183.304
G1 F1200 X169.307 Y183.449 E18.47033
G0 F6000 X169.728 Y183.304
G1 F1200 X169.873 Y183.449 E18.47443
G0 F6000 X170.293 Y183.304
G1 F1200 X170.438 Y183.449 E18.47852
G0 F6000 X170.859 Y183.304
G1 F1200 X171.004 Y183.449 E18.48261
G0 F6000 X171.425 Y183.304
G1 F1200 X171.57 Y183.449 E18.4867
G0 F6000 X171.99 Y183.304
G1 F1200 X172.135 Y183.449 E18.49079
G0 F6000 X172.556 Y183.304
G1 F1200 X172.701 Y183.449 E18.49489
G0 F6000 X173.122 Y183.304
G1 F1200 X173.267 Y183.449 E18.49898
G0 F6000 X173.688 Y183.304
G1 F1200 X173.833 Y183.449 E18.50307
G0 F6000 X174.253 Y183.304
G1 F1200 X174.398 Y183.449 E18.50716
G0 F6000 X174.819 Y183.304
G1 F1200 X174.964 Y183.449 E18.51126
G0 F6000 X175.385 Y183.304
G1 F1200 X175.53 Y183.449 E18.51535
G0 F6000 X175.95 Y183.304
G1 F1200 X176.095 Y183.449 E18.51944
G0 F6000 X176.516 Y183.304
G1 F1200 X176.661 Y183.449 E18.52353
G0 F6000 X177.082 Y183.304
G1 F1200 X177.227 Y183.449 E18.52762
G0 F6000 X177.647 Y183.304
G1 F1200 X177.792 Y183.449 E18.53172
G0 F6000 X178.213 Y183.304
G1 F1200 X178.358 Y183.449 E18.53581
G0 F6000 X178.779 Y183.304
G1 F1200 X178.924 Y183.449 E18.5399
G0 F6000 X179.344 Y183.304
G1 F1200 X179.489 Y183.449 E18.54399
G0 F6000 X179.91 Y183.304
G1 F1200 X180.055 Y183.449 E18.54809
G0 F6000 X180.476 Y183.304
G1 F1200 X180.621 Y183.449 E18.55218
G0 F6000 X181.041 Y183.304
G1 F1200 X181.186 Y183.449 E18.55627
G0 F6000 X181.607 Y183.304
G1 F1200 X181.752 Y183.449 E18.56036
G0 F6000 X182.173 Y183.304
G1 F1200 X182.318 Y183.449 E18.56445
G0 F6000 X182.739 Y183.304
G1 F1200 X182.883 Y183.449 E18.56853
G0 F6000 X183.304 Y183.304
G1 F1200 X183.449 Y183.449 E18.57263
G0 F6000 X183.535 Y182.969
;TYPE:SKIN
G1 F1200 X183.414 Y182.848 E18.57433
G0 F6000 X183.414 Y182.565
G1 F1200 X183.818 Y182.969 E18.58003
G0 F6000 X183.839 Y182.707
G1 F1200 X183.414 Y182.282 E18.58603
G0 F6000 X183.414 Y182
G1 F1200 X183.839 Y182.425 E18.59203
G0 F6000 X183.839 Y182.142
G1 F1200 X183.414 Y181.717 E18.59803
G0 F6000 X183.414 Y181.434
G1 F1200 X183.839 Y181.859 E18.60402
G0 F6000 X183.839 Y181.576
G1 F1200 X183.414 Y181.151 E18.61002
G0 F6000 X183.414 Y180.868
G1 F1200 X183.839 Y181.293 E18.61602
G0 F6000 X183.839 Y181.01
G1 F1200 X183.414 Y180.585 E18.62201
G0 F6000 X183.414 Y180.303
G1 F1200 X183.839 Y180.728 E18.62801
G0 F6000 X183.839 Y180.445
G1 F1200 X183.414 Y180.02 E18.63401
G0 F6000 X183.414 Y179.737
G1 F1200 X183.839 Y180.162 E18.64001
G0 F6000 X183.839 Y179.879
G1 F1200 X183.414 Y179.454 E18.646
G0 F6000 X183.414 Y179.171
G1 F1200 X183.839 Y179.596 E18.652
G0 F6000 X183.839 Y179.313
G1 F1200 X183.414 Y178.888 E18.658
G0 F6000 X183.414 Y178.605
G1 F1200 X183.839 Y179.03 E18.66399
G0 F6000 X183.839 Y178.748
G1 F1200 X183.414 Y178.323 E18.66999
G0 F6000 X183.414 Y178.04
G1 F1200 X183.839 Y178.465 E18.67599
G0 F6000 X183.839 Y178.182
G1 F1200 X183.414 Y177.757 E18.68199
G0 F6000 X183.414 Y177.474
G1 F1200 X183.839 Y177.899 E18.68798
G0 F6000 X183.839 Y177.616
G1 F1200 X183.414 Y177.191 E18.69398
G0 F6000 X183.414 Y176.908
G1 F1200 X183.839 Y177.333 E18.69998
G0 F6000 X183.839 Y177.051
G1 F1200 X183.414 Y176.626 E18.70597
G0 F6000 X183.414 Y176.343
G1 F1200 X183.839 Y176.768 E18.71197
G0 F6000 X183.839 Y176.485
G1 F1200 X183.414 Y176.06 E18.71797
G0 F6000 X183.414 Y175.777
G1 F1200 X183.839 Y176.202 E18.72397
G0 F6000 X183.839 Y175.919
G1 F1200 X183.414 Y175.494 E18.72996
G0 F6000 X183.414 Y175.211
